!!!OTL: O KOENIGIN, LIEB MUTTER MEIN
!!!ARE: Europa, Mitteleuropa, Deutschland, Niederrhein
!!!SCT: Z0049
!!!YEM: Copyright 1995, estate of Helmut Schaffrath.
**kern
*ICvox
*Ivox
*M6/8
*k[b-]
*d:
{16d
16e
=1
4fn
8e
4d
16a
16b
=2
4ccn
8b
4a}
{8a
=3
4g
8cc#
4b
8a
=4
8b
8a
8g#
4a}
{8a
=5
8a
8g
16a
16g
8fn
8g
8a
=6
8g
8fn
8e
4fn}
{16fn
16d
=7
4cn
8fn
8e
8fn
8d
=8
8c#
8d
8e
4d}
==
!!!AGN: Sagen - Lied, Romanze, Tod
!!!ONB: ESAC (Essen Associative Code) Database: ZUCCAL
!!!AMT: compound duple
!!!AIN: vox
!!!EED: Helmut Schaffrath
!!!EEV: 1.0
*-
